X: 101
T:Brenda Stubbert's
M:4/4
L:1/8
F:http://blackrosetheband.googlepages.com/ABCTUNES.ABC May 2009
C:Jerry Holland
R:R
K:ADor
"Am"A2BA GAAB|A2Bd edde|"Em"G2BA BGGB|"G"BcBA BGGB|
"Am"A2BA GAAB|A2Bd edda|"Em"gedB GABd|"G"(3egedB eAAG:|
"Am"(3AAAa2 (3AAAg2|"Dsus2"Aage ageg|"Em"G2BA BGGB|"G"BcBA BGGB|
"Am"(3AAAa2 (3AAAg2|"Dsus2"Aage agea|"Em"gedB GABd|"G"(3ege dB eAAG|
"Am"(3AAAa2 (3AAAg2|"Dsus2"Aage ageg|"Em"G2BA BGGB|"G"BcBA BGGB|
"Dsus2"A2BA GAAB|"Em"A2Bd edda|"F"gedB GABd|"G"(3ege dB eAAG||

